icons/svg/maxcdn.svg

﻿<?xml version="1.0" encoding="utf-8"?>
<!DOCTYPE svg PUBLIC "-//W3C//DTD SVG 1.1//EN" "http://www.w3.org/Graphics/SVG/1.1/DTD/svg11.dtd">
<svg xmlns="http://www.w3.org/2000/svg" xmlns:xlink="http://www.w3.org/1999/xlink" version="1.1" baseProfile="full" width="24" height="24" viewBox="0 0 24.00 24.00" enable-background="new 0 0 24.00 24.00" xml:space="preserve">
	<path fill="#000000" fill-opacity="1" stroke-linejoin="round" d="M 20.5962,6.68884C 19.7257,5.61378 18.3814,5.00001 16.9028,5.00001L 2.95403,5.00001L 4.62234,8.57447L 2.39276,19L 6.04739,19L 8.27844,8.57447L 11.4004,8.57308L 9.17165,19L 12.8262,19L 15.0551,8.57308L 16.9028,8.57308C 17.3026,8.57308 17.6277,8.70288 17.8156,8.93677C 18.0075,9.17067 18.066,9.51485 17.9815,9.90464L 16.0357,19L 19.6898,19L 21.4765,10.6519C 21.7847,9.20629 21.4631,7.76096 20.5962,6.68884 Z "/>
</svg>

<svg xmlns="http://www.w3.org/2000/svg" version="1.1" baseProfile="full" width="24" height="24" viewBox="0 0 24.00 24.00" xml:space="preserve"><path fill="#000" fill-opacity="1" stroke-linejoin="round" d="M20.596 6.69C19.726 5.613 18.38 5 16.903 5H2.953l1.67 3.574L2.392 19h3.654l2.23-10.426H11.4L9.172 19h3.654l2.23-10.427h1.847c.4 0 .725.13.913.364.192.234.25.578.166.968L16.035 19h3.654l1.787-8.348c.308-1.446-.014-2.89-.88-3.963z"/></svg>
